X: 35059
T: Rolling In The Barrel
R: reel
M: 4/4
K: Eminor
E2EE BEE2|B2AF DEFD|E2EE BEE2|B2Ac BEED|
E3E BEE2|B2AF DEFD|EFGE BAFA|B2Ac BEE2||
e2ge bege|d2df a2fd|e2ge bege|dBAc BEE2|
e2ge bege|d2df a2fd|efge fedB|dBAc BEE2||

